X:247
T:The Trail Hiker's Reel
R:reel
C:Bruce Osborne - Aug. 2002
Z:abc by bosborne@kos.net
M:2/4
L:1/8
K:Gmaj
d/c/|B/G/D/G/ B/G/D/G/|A/G/B/G/ A/G/B/G/|AA/G/ D/F/A/F/|G/F/G/A/ Bd/c/|\
B/G/D/G/ B/G/D/G/|A/G/B/G/ A/G/B/G/|AA/G/ D/F/A/F/|G/B/A/F/ G:|
|:D/C/|B,/D/G/D/ B,/D/G/D/|C/E/G/E/ C/E/G/E/|D/F/A/F/ D/F/A/F/|G/F/G/A/ BD/C/|\
B,/D/G/D/ B,/D/G/D/|C/E/G/E/ C/E/G/E/|D/F/A/F/ D/F/A/F/|G/B/A/F/ G:|
